X:97
T:Harvest Home - Barretts Folk Songs
%%VWML:SBG-1-2-842-0
F:http://www.vwml.org/record/SBG/1/2/842
Z:Original Sibelius transcriptions by M. & S. Graebe
M:4/4
I:linebreak $
K:F
V:1 treble nm="P1"
V:1
 z4 !fermata!z2 c3/2 B/ | A F F F A-c c A | G F E F G3 G | A F F F Ac c c | d d c B c2 c>B |$ %5
 A F F F Ac c A | G F E F G3 G | A F F F Ac c c | d d c B c3 c |$ A2 FA c3 A | G F E F G3 G | %11
 A F F F A c !fermata!c c | d d c B c3 x | %13
T:Harvest Home -Plumtree 1st tune
F:http://www.vwml.org/record/SBG/1/2/842
Z:Original Sibelius transcriptions by M. & S. Graebe
M:4/4
I:linebreak $
K:G
V:1 treble nm="P1"
V:1
 D D | G2 G G A A z B | c B A G | A2 D D | G2 G G A A z B | c B A G d2 B-c | d2 B2 e2 c2 A B |$ %7
 cA A d B2 d d | g G G G e2 d c | B2 (d/c/) (B/A/) B2 d d | g2 f e d d2 c | B2 A3/2 G/ G2 z2 | %12
 A2 z2 B2 z2 | %13
T:Harvest Home -from same
F:http://www.vwml.org/record/SBG/1/2/842
Z:Original Sibelius transcriptions by M. & S. Graebe
M:4/4
I:linebreak $
K:G
V:1 treble nm="P1"
V:1
 d2 d c B2 B A | G2 G2 G2 G2 | A2 B2 c2 d2 | (c4 B2) z2 | d2 d c B2 B A |$ G2 G2 D2 D2 | %6
 G2 .A2 B2 ^c2 | d4 z2 (Bc) | d2 dc B2 B A | G2 GF E2 AB | c2 cB A2 A G |$ F2 FE D2 D2 | %12
 (GFGA B2) B2 | (cBcd) e2 z e | d2 z c B2 z A | G4 x4 | %16







